Sources/FrostedUI/Resources/Icons.xcassets/sadFaceFilled12.imageset/sad-face-filled-12.svg

<svg width="12" height="12" viewBox="0 0 12 12" fill="none" xmlns="http://www.w3.org/2000/svg" data-fui-icon="true">
  <path
    d="M6 0C9.31371 0 12 2.68629 12 6C12 9.31371 9.31371 12 6 12C2.68629 12 0 9.31371 0 6C0 2.68629 2.68629 0 6 0ZM6 6.5C5.06781 6.5 4.40465 6.81534 3.96875 7.16406C3.75572 7.33448 3.6039 7.50767 3.50195 7.64355C3.45104 7.71144 3.41192 7.77108 3.38379 7.81738C3.36975 7.8405 3.35757 7.86071 3.34863 7.87695C3.34415 7.8851 3.34018 7.89319 3.33691 7.89941L3.33008 7.91309L3.3291 7.91406C3.32936 7.9146 3.34233 7.92104 3.72266 8.11133L3.3291 7.91504C3.14416 8.28545 3.29469 8.73572 3.66504 8.9209C4.01223 9.09425 4.42936 8.97319 4.63281 8.65234L4.66699 8.59082C4.67301 8.58122 4.68507 8.56544 4.70117 8.54395C4.73985 8.49238 4.80694 8.41538 4.90625 8.33594C5.09535 8.18466 5.43219 8 6 8C6.56781 8 6.90465 8.18466 7.09375 8.33594C7.19306 8.41538 7.26015 8.49238 7.29883 8.54395C7.31618 8.5671 7.32733 8.58457 7.33301 8.59375C7.3326 8.59297 7.3325 8.59174 7.33203 8.59082L7.36719 8.65234C7.57064 8.97319 7.98777 9.09425 8.33496 8.9209C8.70531 8.73572 8.85584 8.28545 8.6709 7.91504L8.27734 8.11133C8.65767 7.92104 8.67064 7.9146 8.6709 7.91406L8.66992 7.91309L8.66309 7.89941C8.65982 7.89319 8.65585 7.8851 8.65137 7.87695C8.64243 7.86071 8.63025 7.8405 8.61621 7.81738C8.58808 7.77108 8.54896 7.71144 8.49805 7.64355C8.3961 7.50767 8.24428 7.33448 8.03125 7.16406C7.59535 6.81534 6.93219 6.5 6 6.5ZM4.66504 8.59668C4.66388 8.59859 4.66341 8.60002 4.66309 8.60059C4.66353 8.59978 4.66478 8.59805 4.66602 8.5957V8.59375L4.66504 8.59668ZM4.25 3.78125C3.69772 3.78125 3.25 4.22897 3.25 4.78125C3.25 5.33353 3.69772 5.78125 4.25 5.78125C4.80228 5.78125 5.25 5.33353 5.25 4.78125C5.25 4.22897 4.80228 3.78125 4.25 3.78125ZM7.75 3.78125C7.19772 3.78125 6.75 4.22897 6.75 4.78125C6.75 5.33353 7.19772 5.78125 7.75 5.78125C8.30229 5.78125 8.75 5.33353 8.75 4.78125C8.75 4.22897 8.30229 3.78125 7.75 3.78125Z"
    fill="currentColor"
  />
</svg>

<svg xmlns="http://www.w3.org/2000/svg" width="12" height="12" fill="none" data-fui-icon="true" viewBox="0 0 12 12"><path fill="currentColor" d="M6 0a6 6 0 1 1 0 12A6 6 0 0 1 6 0m0 6.5c-.932 0-1.595.315-2.031.664a2.7 2.7 0 0 0-.585.653l-.035.06-.012.022-.007.014v.001l.393.197-.394-.196a.75.75 0 0 0 1.304.737l.034-.061.034-.047c.039-.052.106-.129.205-.208C5.096 8.185 5.432 8 6 8s.905.185 1.094.336a1.2 1.2 0 0 1 .239.258l-.001-.003.035.061a.75.75 0 0 0 1.304-.737l-.394.196.394-.197H8.67l-.007-.015-.012-.022-.035-.06a2.665 2.665 0 0 0-.585-.653C7.595 6.815 6.932 6.5 6 6.5M4.665 8.597l-.002.004.003-.005v-.002zM4.25 3.78a1 1 0 1 0 0 2 1 1 0 0 0 0-2m3.5 0a1 1 0 1 0 0 2 1 1 0 0 0 0-2"/></svg>
